suite-common/icons/assets/icons/arrowLineUpRight.svg

<svg width="13" height="13" viewBox="0 0 13 13" fill="none" xmlns="http://www.w3.org/2000/svg">
    <path fill-rule="evenodd" clip-rule="evenodd" d="M4.25 2.25C3.83579 2.25 3.5 1.91421 3.5 1.5C3.5 1.08579 3.83579 0.75 4.25 0.75H10.5C10.9142 0.75 11.25 1.08579 11.25 1.5V7.75C11.25 8.16421 10.9142 8.5 10.5 8.5C10.0858 8.5 9.75 8.16421 9.75 7.75V3.31066L4.03033 9.03033C3.73744 9.32322 3.26256 9.32322 2.96967 9.03033C2.67678 8.73744 2.67678 8.26256 2.96967 7.96967L8.68934 2.25H4.25ZM0.25 11.5C0.25 11.0858 0.585786 10.75 1 10.75H12C12.4142 10.75 12.75 11.0858 12.75 11.5C12.75 11.9142 12.4142 12.25 12 12.25H1C0.585786 12.25 0.25 11.9142 0.25 11.5Z" fill="white"/>
</svg>

<svg xmlns="http://www.w3.org/2000/svg" fill="none" viewBox="0 0 13 13">
  <path fill="#fff" fill-rule="evenodd" d="M4.25 2.25a.75.75 0 0 1 0-1.5h6.25a.75.75 0 0 1 .75.75v6.25a.75.75 0 0 1-1.5 0V3.31L4.03 9.03a.75.75 0 0 1-1.06-1.06l5.72-5.72zm-4 9.25a.75.75 0 0 1 .75-.75h11a.75.75 0 0 1 0 1.5H1a.75.75 0 0 1-.75-.75" clip-rule="evenodd"/>
</svg>
